; G-Code generated by Simplify3D(R) Version 3.1.1
; Nov 27, 2016 at 10:37:21 AM
; Settings Summary
;   processName,Process1
;   applyToModels,1.5x11cylinder
;   profileName,Kodama Trinus(2)
;   profileVersion,2016-11-03 14:32:19
;   baseProfile,
;   printMaterial,PLA
;   printQuality,Medium
;   printExtruders,
;   extruderName,Primary Extruder
;   extruderToolheadNumber,0
;   extruderDiameter,0.4
;   extruderAutoWidth,0
;   extruderWidth,0.4
;   extrusionMultiplier,0.9
;   extruderUseRetract,1
;   extruderRetractionDistance,1.5
;   extruderExtraRestartDistance,0
;   extruderRetractionZLift,0
;   extruderRetractionSpeed,1800
;   extruderUseCoasting,1
;   extruderCoastingDistance,0.5
;   extruderUseWipe,0
;   extruderWipeDistance,5
;   primaryExtruder,0
;   layerHeight,0.2
;   topSolidLayers,3
;   bottomSolidLayers,3
;   perimeterOutlines,2
;   printPerimetersInsideOut,1
;   startPointOption,2
;   startPointOriginX,0
;   startPointOriginY,0
;   startPointOriginZ,300
;   sequentialIslands,0
;   spiralVaseMode,0
;   firstLayerHeightPercentage,90
;   firstLayerWidthPercentage,100
;   firstLayerUnderspeed,0.5
;   useRaft,0
;   raftExtruder,0
;   raftLayers,3
;   raftOffset,3
;   raftSeparationDistance,0.14
;   raftInfill,85
;   disableRaftBaseLayers,0
;   useSkirt,1
;   skirtExtruder,0
;   skirtLayers,1
;   skirtOutlines,2
;   skirtOffset,4
;   usePrimePillar,0
;   primePillarExtruder,999
;   primePillarWidth,12
;   primePillarLocation,7
;   primePillarSpeedMultiplier,1
;   useOozeShield,0
;   oozeShieldExtruder,999
;   oozeShieldOffset,2
;   oozeShieldOutlines,1
;   oozeShieldSidewallShape,1
;   oozeShieldSidewallAngle,30
;   oozeShieldSpeedMultiplier,1
;   infillExtruder,0
;   internalInfillPattern,Rectilinear
;   externalInfillPattern,Rectilinear
;   infillPercentage,20
;   outlineOverlapPercentage,15
;   infillExtrusionWidthPercentage,150
;   minInfillLength,5
;   infillLayerInterval,1
;   infillAngles,45,-45
;   overlapInfillAngles,0
;   generateSupport,0
;   supportExtruder,0
;   supportInfillPercentage,30
;   supportExtraInflation,0
;   denseSupportLayers,0
;   denseSupportInfillPercentage,70
;   supportLayerInterval,1
;   supportHorizontalPartOffset,0.3
;   supportUpperSeparationLayers,1
;   supportLowerSeparationLayers,1
;   supportType,0
;   supportGridSpacing,4
;   maxOverhangAngle,45
;   supportAngles,0
;   temperatureName,Extruder 1,Heated Bed
;   temperatureNumber,0,0
;   temperatureSetpointCount,1,1
;   temperatureSetpointLayers,1,1
;   temperatureSetpointTemperatures,200,60
;   temperatureStabilizeAtStartup,1,1
;   temperatureHeatedBed,0,1
;   temperatureRelayBetweenLayers,0,0
;   temperatureRelayBetweenLoops,0,0
;   fanLayers,1,2
;   fanSpeeds,0,100
;   blipFanToFullPower,0
;   adjustSpeedForCooling,1
;   minSpeedLayerTime,15
;   minCoolingSpeedSlowdown,20
;   increaseFanForCooling,0
;   minFanLayerTime,45
;   maxCoolingFanSpeed,100
;   increaseFanForBridging,0
;   bridgingFanSpeed,100
;   use5D,1
;   relativeEdistances,0
;   allowEaxisZeroing,1
;   independentExtruderAxes,0
;   includeM10123,0
;   stickySupport,1
;   applyToolheadOffsets,0
;   gcodeXoffset,0
;   gcodeYoffset,0
;   gcodeZoffset,0
;   overrideMachineDefinition,1
;   machineTypeOverride,0
;   strokeXoverride,120
;   strokeYoverride,125
;   strokeZoverride,125
;   originOffsetXoverride,0
;   originOffsetYoverride,0
;   originOffsetZoverride,0
;   homeXdirOverride,-1
;   homeYdirOverride,-1
;   homeZdirOverride,-1
;   flipXoverride,1
;   flipYoverride,-1
;   flipZoverride,1
;   toolheadOffsets,0,0|0,0|0,0|0,0|0,0|0,0
;   overrideFirmwareConfiguration,1
;   firmwareTypeOverride,RepRap (Marlin/Repetier/Sprinter)
;   GPXconfigOverride,r2
;   baudRateOverride,115200
;   overridePrinterModels,1
;   printerModelsOverride
;   startingGcode,G28 ; home all axes,G92 E0 ; reset extruder position,G1 X0 Y0 Z0.3 F3600 ; go to prime start point,G1 E1.5 F200 ; unretract,G1 Y10 E3.0 F200 ; slow prime extruder,G1 Y35 E6.0 F600 ; finish priming extruder,G1 Y38 Z0.1 F3600 ; wipe extruder
;   layerChangeGcode,
;   retractionGcode,
;   toolChangeGcode,
;   endingGcode,M104 S0 ; turn off extruder,M140 S0 ; turn off bed,G28 X ; move head away from print,M84 ; disable motors
;   exportFileFormat,gcode
;   celebration,0
;   celebrationSong,Random Song
;   postProcessing,
;   defaultSpeed,2400
;   outlineUnderspeed,0.4
;   solidInfillUnderspeed,1
;   supportUnderspeed,0.8
;   rapidXYspeed,4800
;   rapidZspeed,1002
;   minBridgingArea,50
;   bridgingExtraInflation,0
;   bridgingExtrusionMultiplier,1
;   bridgingSpeedMultiplier,1
;   filamentDiameter,1.75
;   filamentPricePerKg,46
;   filamentDensity,1.25
;   useMinPrintHeight,0
;   minPrintHeight,0
;   useMaxPrintHeight,0
;   maxPrintHeight,0
;   useDiaphragm,0
;   diaphragmLayerInterval,20
;   robustSlicing,1
;   mergeAllIntoSolid,0
;   onlyRetractWhenCrossingOutline,1
;   retractBetweenLayers,1
;   useRetractionMinTravel,0
;   retractionMinTravel,3
;   retractWhileWiping,0
;   onlyWipeOutlines,1
;   avoidCrossingOutline,0
;   maxMovementDetourFactor,3
;   toolChangeRetractionDistance,12
;   toolChangeExtraRestartDistance,-0.5
;   toolChangeRetractionSpeed,600
;   allowThinWallGapFill,1
;   thinWallAllowedOverlapPercentage,10
;   horizontalSizeCompensation,0
G90
M82
M106 S0
M140 S60
M190 S60
M104 S200 T0
M109 S200 T0
G28 ; home all axes
G92 E0 ; reset extruder position
G1 X0 Y0 Z0.3 F3600 ; go to prime start point
G1 E1.5 F200 ; unretract
G1 Y10 E3.0 F200 ; slow prime extruder
G1 Y35 E6.0 F600 ; finish priming extruder
G1 Y38 Z0.1 F3600 ; wipe extruder
G92 E0
G1 E-1.5000 F1800
G1 Z0.180 F1002
; layer 1, Z = 0.18
T0
; tool H0.200 W0.400
; skirt
G1 X55.293 Y57.927 F4800
G1 E0.0000 F540
G92 E0
G1 X55.889 Y57.384 E0.0241 F480
G1 X55.912 Y57.365 E0.0250
G1 X56.251 Y57.113 E0.0377
G1 X56.275 Y57.096 E0.0386
G1 X56.966 Y56.680 E0.0627
G1 X56.992 Y56.666 E0.0636
G1 X57.374 Y56.485 E0.0762
G1 X57.401 Y56.474 E0.0771
G1 X58.160 Y56.200 E0.1013
G1 X58.188 Y56.192 E0.1021
G1 X58.598 Y56.088 E0.1148
G1 X58.626 Y56.082 E0.1157
G1 X59.424 Y55.962 E0.1398
G1 X59.454 Y55.959 E0.1407
G1 X59.875 Y55.938 E0.1533
G1 X59.905 Y55.938 E0.1542
G1 X60.711 Y55.976 E0.1784
G1 X60.740 Y55.978 E0.1793
G1 X61.158 Y56.040 E0.1919
G1 X61.187 Y56.045 E0.1928
G1 X61.970 Y56.240 E0.2169
G1 X61.998 Y56.248 E0.2178
G1 X62.396 Y56.390 E0.2305
G1 X62.423 Y56.401 E0.2313
G1 X63.153 Y56.744 E0.2555
G1 X63.179 Y56.758 E0.2564
G1 X63.542 Y56.975 E0.2690
G1 X63.567 Y56.991 E0.2699
G1 X64.216 Y57.470 E0.2941
G1 X64.238 Y57.489 E0.2949
G1 X64.552 Y57.772 E0.3076
G1 X64.573 Y57.793 E0.3085
G1 X65.116 Y58.389 E0.3326
G1 X65.135 Y58.412 E0.3335
G1 X65.387 Y58.751 E0.3461
G1 X65.403 Y58.775 E0.3470
G1 X65.820 Y59.466 E0.3712
G1 X65.834 Y59.492 E0.3720
G1 X66.015 Y59.874 E0.3847
G1 X66.026 Y59.901 E0.3856
G1 X66.300 Y60.660 E0.4097
G1 X66.308 Y60.688 E0.4106
G1 X66.412 Y61.098 E0.4233
G1 X66.418 Y61.126 E0.4241
G1 X66.538 Y61.924 E0.4483
G1 X66.541 Y61.954 E0.4492
G1 X66.562 Y62.375 E0.4618
G1 X66.562 Y62.405 E0.4627
G1 X66.524 Y63.211 E0.4868
G1 X66.522 Y63.240 E0.4877
G1 X66.460 Y63.658 E0.5004
G1 X66.455 Y63.687 E0.5012
G1 X66.260 Y64.470 E0.5254
G1 X66.252 Y64.498 E0.5263
G1 X66.110 Y64.896 E0.5389
G1 X66.099 Y64.923 E0.5398
G1 X65.756 Y65.653 E0.5640
G1 X65.742 Y65.679 E0.5648
G1 X65.525 Y66.042 E0.5775
G1 X65.509 Y66.067 E0.5784
G1 X65.030 Y66.716 E0.6025
G1 X65.011 Y66.739 E0.6034
G1 X64.728 Y67.052 E0.6160
G1 X64.707 Y67.073 E0.6169
G1 X64.111 Y67.616 E0.6411
G1 X64.088 Y67.635 E0.6420
G1 X63.749 Y67.887 E0.6546
G1 X63.725 Y67.903 E0.6555
G1 X63.034 Y68.320 E0.6796
G1 X63.008 Y68.334 E0.6805
G1 X62.626 Y68.515 E0.6932
G1 X62.599 Y68.526 E0.6940
G1 X61.840 Y68.800 E0.7182
G1 X61.812 Y68.808 E0.7191
G1 X61.402 Y68.912 E0.7317
G1 X61.373 Y68.918 E0.7326
G1 X60.576 Y69.038 E0.7567
G1 X60.546 Y69.041 E0.7576
G1 X60.125 Y69.062 E0.7703
G1 X60.095 Y69.062 E0.7712
G1 X59.289 Y69.024 E0.7953
G1 X59.260 Y69.022 E0.7962
G1 X58.842 Y68.960 E0.8088
G1 X58.813 Y68.955 E0.8097
G1 X58.030 Y68.760 E0.8339
G1 X58.002 Y68.752 E0.8347
G1 X57.604 Y68.610 E0.8474
G1 X57.576 Y68.599 E0.8483
G1 X56.847 Y68.256 E0.8724
G1 X56.821 Y68.242 E0.8733
G1 X56.458 Y68.025 E0.8859
G1 X56.433 Y68.009 E0.8868
G1 X55.784 Y67.530 E0.9110
G1 X55.761 Y67.511 E0.9119
G1 X55.448 Y67.228 E0.9245
G1 X55.427 Y67.207 E0.9254
G1 X54.884 Y66.611 E0.9495
G1 X54.865 Y66.588 E0.9504
G1 X54.613 Y66.249 E0.9631
G1 X54.597 Y66.225 E0.9639
G1 X54.180 Y65.534 E0.9881
G1 X54.166 Y65.508 E0.9890
G1 X53.985 Y65.126 E1.0016
G1 X53.974 Y65.099 E1.0025
G1 X53.700 Y64.340 E1.0266
G1 X53.692 Y64.312 E1.0275
G1 X53.588 Y63.902 E1.0402
G1 X53.582 Y63.874 E1.0411
G1 X53.462 Y63.075 E1.0652
G1 X53.459 Y63.045 E1.0661
G1 X53.438 Y62.620 E1.0789
G1 X53.438 Y62.591 E1.0797
G1 X53.477 Y61.783 E1.1040
G1 X53.480 Y61.754 E1.1048
G1 X53.540 Y61.338 E1.1174
G1 X53.546 Y61.309 E1.1183
G1 X53.740 Y60.530 E1.1423
G1 X53.748 Y60.502 E1.1432
G1 X53.890 Y60.104 E1.1559
G1 X53.901 Y60.077 E1.1567
G1 X54.244 Y59.347 E1.1809
G1 X54.258 Y59.321 E1.1818
G1 X54.475 Y58.958 E1.1944
G1 X54.491 Y58.933 E1.1953
G1 X54.959 Y58.299 E1.2189
G1 X54.970 Y58.284 F480
G1 X54.989 Y58.261 F480
G1 X55.272 Y57.948 F480
G1 X55.293 Y57.927 F480
G1 X55.569 Y58.216 F4800
G92 E0
G1 X56.151 Y57.686 E0.0236 F480
G1 X56.159 Y57.680 E0.0239
G1 X56.482 Y57.440 E0.0359
G1 X56.490 Y57.434 E0.0362
G1 X57.164 Y57.028 E0.0598
G1 X57.173 Y57.023 E0.0601
G1 X57.537 Y56.850 E0.0721
G1 X57.546 Y56.847 E0.0724
G1 X58.286 Y56.580 E0.0960
G1 X58.295 Y56.577 E0.0963
G1 X58.686 Y56.478 E0.1083
G1 X58.696 Y56.476 E0.1086
G1 X59.474 Y56.359 E0.1322
G1 X59.484 Y56.358 E0.1325
G1 X59.886 Y56.338 E0.1445
G1 X59.896 Y56.338 E0.1448
G1 X60.682 Y56.375 E0.1684
G1 X60.692 Y56.376 E0.1687
G1 X61.090 Y56.434 E0.1807
G1 X61.100 Y56.436 E0.1810
G1 X61.864 Y56.625 E0.2046
G1 X61.873 Y56.628 E0.2049
G1 X62.253 Y56.763 E0.2169
G1 X62.262 Y56.767 E0.2172
G1 X62.974 Y57.102 E0.2408
G1 X62.983 Y57.107 E0.2411
G1 X63.329 Y57.313 E0.2531
G1 X63.337 Y57.318 E0.2534
G1 X63.970 Y57.786 E0.2770
G1 X63.978 Y57.792 E0.2773
G1 X64.277 Y58.062 E0.2894
G1 X64.284 Y58.069 E0.2897
G1 X64.814 Y58.651 E0.3132
G1 X64.820 Y58.659 E0.3135
G1 X65.060 Y58.982 E0.3256
G1 X65.066 Y58.990 E0.3259
G1 X65.472 Y59.664 E0.3494
G1 X65.477 Y59.673 E0.3497
G1 X65.650 Y60.037 E0.3618
G1 X65.653 Y60.046 E0.3621
G1 X65.920 Y60.786 E0.3856
G1 X65.923 Y60.795 E0.3859
G1 X66.022 Y61.186 E0.3980
G1 X66.024 Y61.196 E0.3983
G1 X66.141 Y61.974 E0.4218
G1 X66.142 Y61.984 E0.4221
G1 X66.162 Y62.386 E0.4342
G1 X66.162 Y62.396 E0.4345
G1 X66.125 Y63.182 E0.4580
G1 X66.124 Y63.192 E0.4583
G1 X66.066 Y63.590 E0.4704
G1 X66.064 Y63.600 E0.4707
G1 X65.875 Y64.364 E0.4942
G1 X65.872 Y64.373 E0.4945
G1 X65.737 Y64.753 E0.5066
G1 X65.733 Y64.762 E0.5069
G1 X65.398 Y65.474 E0.5304
G1 X65.393 Y65.483 E0.5307
G1 X65.187 Y65.829 E0.5428
G1 X65.182 Y65.837 E0.5431
G1 X64.714 Y66.470 E0.5667
G1 X64.708 Y66.478 E0.5669
G1 X64.438 Y66.777 E0.5790
G1 X64.431 Y66.784 E0.5793
G1 X63.849 Y67.314 E0.6029
G1 X63.841 Y67.320 E0.6032
G1 X63.518 Y67.560 E0.6152
G1 X63.510 Y67.566 E0.6155
G1 X62.836 Y67.972 E0.6391
G1 X62.827 Y67.977 E0.6394
G1 X62.464 Y68.150 E0.6514
G1 X62.454 Y68.153 E0.6517
G1 X61.714 Y68.420 E0.6753
G1 X61.705 Y68.423 E0.6756
G1 X61.314 Y68.522 E0.6876
G1 X61.304 Y68.524 E0.6879
G1 X60.526 Y68.641 E0.7115
G1 X60.516 Y68.642 E0.7118
G1 X60.114 Y68.662 E0.7238
G1 X60.104 Y68.662 E0.7241
G1 X59.318 Y68.625 E0.7477
G1 X59.308 Y68.624 E0.7480
G1 X58.910 Y68.566 E0.7600
G1 X58.900 Y68.564 E0.7603
G1 X58.136 Y68.374 E0.7839
G1 X58.127 Y68.372 E0.7842
G1 X57.747 Y68.237 E0.7962
G1 X57.738 Y68.233 E0.7965
G1 X57.026 Y67.898 E0.8201
G1 X57.017 Y67.893 E0.8204
G1 X56.671 Y67.687 E0.8325
G1 X56.663 Y67.682 E0.8327
G1 X56.030 Y67.214 E0.8563
G1 X56.022 Y67.208 E0.8566
G1 X55.723 Y66.938 E0.8687
G1 X55.716 Y66.931 E0.8690
G1 X55.186 Y66.349 E0.8925
G1 X55.180 Y66.341 E0.8928
G1 X54.940 Y66.018 E0.9049
G1 X54.934 Y66.010 E0.9052
G1 X54.528 Y65.336 E0.9287
G1 X54.523 Y65.327 E0.9290
G1 X54.350 Y64.963 E0.9411
G1 X54.347 Y64.954 E0.9414
G1 X54.080 Y64.214 E0.9649
G1 X54.077 Y64.204 E0.9652
G1 X53.978 Y63.814 E0.9773
G1 X53.976 Y63.804 E0.9776
G1 X53.859 Y63.025 E1.0012
G1 X53.858 Y63.015 E1.0015
G1 X53.838 Y62.610 E1.0136
G1 X53.838 Y62.600 E1.0139
G1 X53.876 Y61.812 E1.0375
G1 X53.877 Y61.802 E1.0378
G1 X53.935 Y61.406 E1.0498
G1 X53.937 Y61.396 E1.0501
G1 X54.125 Y60.636 E1.0735
G1 X54.128 Y60.627 E1.0738
G1 X54.263 Y60.247 E1.0859
G1 X54.267 Y60.238 E1.0862
G1 X54.602 Y59.526 E1.1097
G1 X54.607 Y59.517 E1.1100
G1 X54.813 Y59.171 E1.1221
G1 X54.818 Y59.163 E1.1224
G1 X55.240 Y58.592 E1.1436
G1 X55.286 Y58.530 F480
G1 X55.292 Y58.522 F480
G1 X55.562 Y58.223 F480
G1 X55.569 Y58.216 F480
G92 E0
G1 E-1.5000 F1800
; inner perimeter
G1 X58.993 Y61.591 F4800
G1 E0.0000 F1800
G92 E0
G1 X59.189 Y61.412 E0.0080 F336
G1 X59.417 Y61.274 E0.0159
G1 X59.667 Y61.184 E0.0239
G1 X59.931 Y61.145 E0.0319
G1 X60.196 Y61.157 E0.0398
G1 X60.455 Y61.221 E0.0478
G1 X60.695 Y61.335 E0.0557
G1 X60.909 Y61.493 E0.0637
G1 X61.088 Y61.689 E0.0717
G1 X61.226 Y61.917 E0.0796
G1 X61.316 Y62.168 E0.0876
G1 X61.355 Y62.431 E0.0956
G1 X61.343 Y62.696 E0.1035
G1 X61.279 Y62.955 E0.1115
G1 X61.165 Y63.195 E0.1195
G1 X61.007 Y63.409 E0.1274
G1 X60.811 Y63.588 E0.1354
G1 X60.583 Y63.726 E0.1433
G1 X60.332 Y63.816 E0.1513
G1 X60.069 Y63.855 E0.1593
G1 X59.804 Y63.843 E0.1672
G1 X59.545 Y63.779 E0.1752
G1 X59.305 Y63.665 E0.1832
G1 X59.091 Y63.507 E0.1911
G1 X58.912 Y63.311 E0.1991
G1 X58.774 Y63.083 E0.2071
G1 X58.684 Y62.832 E0.2150
G1 X58.645 Y62.570 E0.2230
G1 X58.658 Y62.302 E0.2310
G1 X58.721 Y62.045 E0.2389
G1 X58.735 Y62.016 E0.2399
G1 X58.835 Y61.805 F336
G1 X58.993 Y61.591 F336
; outer perimeter
G1 X58.694 Y61.321 F4800
G92 E0
G1 X58.949 Y61.089 E0.0103 F192
G1 X59.245 Y60.911 E0.0206
G1 X59.569 Y60.795 E0.0310
G1 X59.910 Y60.743 E0.0413
G1 X60.254 Y60.759 E0.0516
G1 X60.589 Y60.843 E0.0619
G1 X60.901 Y60.989 E0.0723
G1 X61.179 Y61.194 E0.0826
G1 X61.411 Y61.449 E0.0929
G1 X61.589 Y61.745 E0.1032
G1 X61.705 Y62.069 E0.1135
G1 X61.757 Y62.410 E0.1239
G1 X61.741 Y62.754 E0.1342
G1 X61.657 Y63.089 E0.1445
G1 X61.511 Y63.401 E0.1548
G1 X61.306 Y63.679 E0.1652
G1 X61.051 Y63.911 E0.1755
G1 X60.755 Y64.089 E0.1858
G1 X60.431 Y64.205 E0.1961
G1 X60.090 Y64.257 E0.2064
G1 X59.746 Y64.241 E0.2168
G1 X59.411 Y64.157 E0.2271
G1 X59.099 Y64.011 E0.2374
G1 X58.821 Y63.806 E0.2477
G1 X58.589 Y63.551 E0.2581
G1 X58.411 Y63.255 E0.2684
G1 X58.295 Y62.931 E0.2787
G1 X58.243 Y62.590 E0.2890
G1 X58.260 Y62.243 E0.2994
G1 X58.343 Y61.911 E0.3097
G1 X58.423 Y61.739 E0.3153
G1 X58.489 Y61.599 F192
G1 X58.694 Y61.321 F192
; solid layer
G1 X60.126 Y61.494 F4800
G92 E0
G1 X61.003 Y62.371 E0.0371 F480
G1 X61.014 Y62.448 E0.0395
G1 X61.005 Y62.647 E0.0454
G1 X60.957 Y62.840 E0.0514
G1 X60.940 Y62.875 E0.0525
G1 X59.626 Y61.561 E0.1082
G1 X59.564 Y61.583 E0.1101
G1 X59.393 Y61.686 E0.1161
G1 X59.285 Y61.785 E0.1205
G1 X60.715 Y63.215 E0.1811
G1 X60.607 Y63.314 E0.1855
G1 X60.436 Y63.417 E0.1914
G1 X60.374 Y63.439 E0.1934
G1 X59.060 Y62.125 E0.2490
G1 X59.043 Y62.160 E0.2502
G1 X58.996 Y62.351 E0.2561
G1 X58.986 Y62.553 E0.2621
G1 X58.997 Y62.629 E0.2644
G1 X59.521 Y63.152 E0.2866
G1 X59.874 Y63.506 F480
G92 E0
G1 E-1.5000 F1800
; layer 2, Z = 0.38
M106 S255
; inner perimeter
G1 X59.804 Y63.843 F4800
G1 Z0.380 F1002
G1 E0.0000 F1800
G92 E0
G1 X59.545 Y63.779 E0.0080 F336
G1 X59.305 Y63.665 E0.0159
G1 X59.091 Y63.507 E0.0239
G1 X58.912 Y63.311 E0.0319
G1 X58.774 Y63.083 E0.0398
G1 X58.684 Y62.832 E0.0478
G1 X58.645 Y62.569 E0.0557
G1 X58.657 Y62.304 E0.0637
G1 X58.721 Y62.045 E0.0717
G1 X58.835 Y61.805 E0.0796
G1 X58.993 Y61.591 E0.0876
G1 X59.189 Y61.412 E0.0956
G1 X59.417 Y61.274 E0.1035
G1 X59.667 Y61.184 E0.1115
G1 X59.931 Y61.145 E0.1195
G1 X60.196 Y61.157 E0.1274
G1 X60.455 Y61.221 E0.1354
G1 X60.695 Y61.335 E0.1433
G1 X60.909 Y61.493 E0.1513
G1 X61.088 Y61.689 E0.1593
G1 X61.226 Y61.917 E0.1672
G1 X61.316 Y62.168 E0.1752
G1 X61.355 Y62.431 E0.1832
G1 X61.343 Y62.696 E0.1911
